src/pos-icons/anchor.svg

<svg height="24" viewBox="0 0 24 24" width="24" xmlns="http://www.w3.org/2000/svg"><path d="m12 2a3 3 0 0 0 -3 3c0 1.27.8 2.4 2 2.83v2.17h-3v2h3v6.92c-1.84-.29-3.47-1.35-4.47-2.92h1.47v-2h-5v5h2v-1.7c1.58 2.31 4.2 3.7 7 3.7s5.42-1.39 7-3.69v1.69h2v-5h-5v2h1.46c-1 1.56-2.63 2.63-4.46 2.92v-6.92h3v-2h-3v-2.18c1.2-.42 2-1.55 2-2.82a3 3 0 0 0 -3-3m0 2a1 1 0 0 1 1 1 1 1 0 0 1 -1 1 1 1 0 0 1 -1-1 1 1 0 0 1 1-1z"/></svg>

<?xml version="1.0" encoding="UTF-8"?><!DOCTYPE svg PUBLIC "-//W3C//DTD SVG 1.1//EN" "http://www.w3.org/Graphics/SVG/1.1/DTD/svg11.dtd"><svg xmlns="http://www.w3.org/2000/svg" xmlns:xlink="http://www.w3.org/1999/xlink" version="1.1" id="mdi-anchor" width="24" height="24" viewBox="0 0 24 24"><path d="M12,2A3,3 0 0,0 9,5C9,6.27 9.8,7.4 11,7.83V10H8V12H11V18.92C9.16,18.63 7.53,17.57 6.53,16H8V14H3V19H5V17.3C6.58,19.61 9.2,21 12,21C14.8,21 17.42,19.61 19,17.31V19H21V14H16V16H17.46C16.46,17.56 14.83,18.63 13,18.92V12H16V10H13V7.82C14.2,7.4 15,6.27 15,5A3,3 0 0,0 12,2M12,4A1,1 0 0,1 13,5A1,1 0 0,1 12,6A1,1 0 0,1 11,5A1,1 0 0,1 12,4Z" /></svg>
